StripePaymentSheet/StripePaymentSheet/Resources/StripePaymentSheet.xcassets/PaymentMethods/icon-pm-bancontact.imageset/icon-pm-bancontact.svg

<svg xmlns="http://www.w3.org/2000/svg" width="27" height="16" viewBox="0 0 27 16">
  <path d="M13.9998,9.0228C12.2165,11.3927 10.0615,14.0457 5.9658,14.0457H1C0.4477,14.0457 0,13.5979 0,13.0457V8.0228C0,7.4705 0.4477,7.0228 1,7.0228H13.0002C14.7835,4.6529 16.9385,2 21.0342,2H26C26.5523,2 27,2.4477 27,3V8.0228C27,8.5751 26.5523,9.0228 26,9.0228H13.9998Z" fill="#ffffff"/>
  <path d="M5.9658,13.0457C9.7329,13.0457 11.6164,10.5342 13.5,8.0228H1V13.0457H5.9658Z" fill="none"/>
  <path d="M21.0342,3C17.2671,3 15.3836,5.5114 13.5,8.0228H26V3H21.0342Z" fill="none"/>
</svg>

<svg viewBox="0 0 27 16" fill="none" xmlns="http://www.w3.org/2000/svg" role="presentation" focusable="false">
  <path
    d="M14 9.023c-1.784 2.37-3.938 5.023-8.034 5.023H1a1 1 0 0 1-1-1V8.023a1 1 0 0 1 1-1h12C14.784 4.653 16.94 2 21.034 2H26a1 1 0 0 1 1 1v5.023a1 1 0 0 1-1 1H14Z"
    fill="#fff" />
  <path d="M5.966 13.046c3.767 0 5.65-2.512 7.534-5.023H1v5.023h4.966Z" fill="url(#bancontact-a)" />
  <path d="M21.034 3c-3.767 0-5.65 2.511-7.534 5.023H26V3h-4.966Z" fill="url(#bancontact-b)" />
  <defs>
    <linearGradient id="bancontact-a" x1="3.528" y1="10.766" x2="12.673" y2="7.37" gradientUnits="userSpaceOnUse">
      <stop stop-color="#005AB9" />
      <stop offset="1" stop-color="#1E3764" />
    </linearGradient>
    <linearGradient id="bancontact-b" x1="14.257" y1="8.458" x2="23.966" y2="5.146" gradientUnits="userSpaceOnUse">
      <stop stop-color="#FBA900" />
      <stop offset="1" stop-color="#FFD800" />
    </linearGradient>
  </defs>
</svg>
